assets/emojis/SmilingFace.svg

<svg width="125" height="126" viewBox="0 0 125 126" fill="none" xmlns="http://www.w3.org/2000/svg">
<circle cx="62.5029" cy="63.1904" r="62.3496" fill="#F9B42F"/>
<path fill-rule="evenodd" clip-rule="evenodd" d="M85.8061 59.5318H84.0865H85.8061H84.0865H85.8061C85.7813 59.1947 85.7813 58.8563 85.8061 58.5192C85.8736 58.0045 85.9981 57.4984 86.1774 57.01C86.3132 56.6236 86.49 56.2522 86.705 55.9019C86.9851 55.4151 87.389 55.0071 87.8775 54.7174C88.55 54.3478 89.3148 54.1692 90.0856 54.2016C90.5876 54.1929 91.0881 54.2573 91.5707 54.3927C92.1423 54.5579 92.6519 54.8834 93.0363 55.3288C93.3372 55.6644 93.5813 56.0449 93.7593 56.4559C94.0314 57.0649 94.2156 57.7078 94.3065 58.3664C94.3342 58.7161 94.3342 59.0674 94.3065 59.4171C94.2751 59.7706 94.3193 60.1266 94.4362 60.4625C94.5531 60.7984 94.7401 61.1069 94.9854 61.3684C95.2307 61.6299 95.5289 61.8387 95.8611 61.9815C96.1933 62.1243 96.5523 62.1981 96.9152 62.1981C97.2781 62.1981 97.637 62.1243 97.9693 61.9815C98.3015 61.8387 98.5997 61.6299 98.845 61.3684C99.0903 61.1069 99.2773 60.7984 99.3942 60.4625C99.511 60.1266 99.5552 59.7706 99.5239 59.4171C99.515 58.7776 99.4628 58.1394 99.3676 57.5067C99.2359 56.6746 99.0266 55.8561 98.7423 55.0613C98.4735 54.3272 98.1264 53.6228 97.7066 52.9598C96.9752 51.7899 95.9622 50.8127 94.7559 50.1133C93.3591 49.3481 91.7845 48.9468 90.1833 48.9479C89.1438 48.9422 88.1095 49.0903 87.1154 49.3873C85.5955 49.8608 84.2416 50.741 83.2072 51.9282C82.5592 52.68 82.032 53.5239 81.6439 54.4309C81.1791 55.4938 80.8572 56.6112 80.6864 57.755C80.5966 58.3368 80.5509 58.9243 80.5496 59.5127C80.5258 59.8663 80.5774 60.2208 80.701 60.5539C80.8247 60.887 81.0177 61.1914 81.268 61.4478C81.5182 61.7042 81.8201 61.907 82.1547 62.0434C82.4892 62.1798 82.8491 62.2467 83.2115 62.2401C83.5739 62.2335 83.9309 62.1534 84.26 62.0048C84.5891 61.8563 84.883 61.6426 85.1233 61.3772C85.3635 61.1119 85.5447 60.8006 85.6556 60.4632C85.7664 60.1258 85.8043 59.7696 85.767 59.4171" fill="#2C2A46"/>
<path fill-rule="evenodd" clip-rule="evenodd" d="M33.2173 59.5596H31.5121H33.2173H31.5121H33.2173C33.1975 59.2215 33.1975 58.8825 33.2173 58.5444C33.3028 58.0319 33.4258 57.5262 33.5855 57.0313C33.7282 56.6472 33.9032 56.2756 34.1086 55.9204C34.4157 55.4122 34.8493 54.9902 35.3681 54.6946C36.0343 54.3221 36.7932 54.1428 37.5577 54.1774C38.0554 54.1701 38.5515 54.2346 39.0304 54.3689C39.5972 54.5346 40.1025 54.8609 40.4837 55.3075C40.7921 55.6975 41.0283 56.1385 41.1812 56.6099C41.4337 57.2264 41.6157 57.8688 41.7238 58.5253C41.7238 59.0999 41.8207 59.5404 41.8207 59.5787C41.8077 59.9189 41.8634 60.2583 41.9845 60.5771C42.1055 60.8958 42.2895 61.1876 42.5258 61.4354C42.762 61.6832 43.0458 61.882 43.3605 62.0203C43.6752 62.1586 44.0147 62.2337 44.3591 62.241C44.7084 62.2411 45.0543 62.1725 45.3766 62.0392C45.6988 61.9059 45.9911 61.7106 46.2363 61.4646C46.4815 61.2186 46.6748 60.9269 46.805 60.6065C46.9351 60.286 46.9995 59.9431 46.9943 59.5979C46.9857 58.9559 46.9274 58.3156 46.8199 57.6825C46.6987 56.8465 46.4909 56.0249 46.1999 55.2309C45.9486 54.492 45.6104 53.7849 45.1923 53.124C44.4597 51.9502 43.4488 50.9706 42.247 50.2701C40.8341 49.4173 39.2131 48.9605 37.5577 48.9485C36.5269 48.9412 35.501 49.0898 34.5155 49.389C33.0061 49.859 31.6624 50.7423 30.6401 51.9364C29.992 52.6898 29.4628 53.5357 29.0706 54.4456C28.6139 55.5113 28.3011 56.6318 28.1405 57.7783C28.0515 58.3616 28.0062 58.9505 28.0049 59.5404C28.0048 59.8807 28.0733 60.2176 28.2062 60.5315C28.3391 60.8454 28.5338 61.1301 28.779 61.3689C29.0243 61.6078 29.3151 61.796 29.6346 61.9227C29.9541 62.0494 30.2959 62.1121 30.6401 62.107C30.9837 62.0971 31.3219 62.0203 31.6355 61.8811C31.949 61.7419 32.2318 61.543 32.4675 61.2958C32.7033 61.0485 32.8874 60.7578 33.0094 60.4401C33.1314 60.1225 33.1889 59.7842 33.1785 59.4446" fill="#2C2A46"/>
<path fill-rule="evenodd" clip-rule="evenodd" d="M75.9668 71.9356C75.3648 73.7081 74.4275 75.3484 73.206 76.767C72.1477 78.0148 70.855 79.043 69.401 79.7932C67.5067 80.7137 65.4281 81.1919 63.322 81.1919C61.2158 81.1919 59.1372 80.7137 57.2429 79.7932C56.1212 79.2105 55.1044 78.4449 54.2343 77.528C53.1819 76.4231 52.3046 75.1638 51.6328 73.7938C51.385 73.2629 51.208 72.8204 51.0841 72.5196L51.0664 72.1125L50.1816 72.3603L51.0664 72.1302L50.1816 72.378L51.0664 72.1479C51.0146 71.8687 50.9054 71.6032 50.7457 71.3684C50.586 71.1335 50.3793 70.9343 50.1387 70.7834C49.8981 70.6325 49.6288 70.5332 49.3478 70.4917C49.0668 70.4503 48.7803 70.4675 48.5064 70.5425C48.2324 70.6174 47.977 70.7484 47.7563 70.9271C47.5355 71.1058 47.3543 71.3284 47.2239 71.5807C47.0936 71.8331 47.0171 72.1097 46.9992 72.3932C46.9813 72.6766 47.0224 72.9607 47.1199 73.2275C47.8032 75.4494 48.9222 77.513 50.4116 79.2977C51.7934 81.0164 53.5092 82.4373 55.4554 83.4743C57.9616 84.7253 60.7244 85.3766 63.5255 85.3766C66.3266 85.3766 69.0893 84.7253 71.5955 83.4743C73.1083 82.6712 74.4874 81.6384 75.6836 80.4126C77.0572 78.9964 78.198 77.3717 79.0639 75.5989C79.4515 74.8215 79.7827 74.0171 80.0549 73.1921C80.1293 72.9318 80.1517 72.6594 80.1208 72.3904C80.0899 72.1215 80.0063 71.8613 79.8748 71.6246C79.7433 71.388 79.5666 71.1796 79.3545 71.0112C79.1425 70.8429 78.8994 70.718 78.6391 70.6436C78.3788 70.5693 78.1064 70.5469 77.8375 70.5778C77.5685 70.6087 77.3083 70.6923 77.0717 70.8237C76.835 70.9552 76.6266 71.132 76.4583 71.344C76.29 71.556 76.1651 71.7991 76.0907 72.0594" fill="#2C2A46"/>
<g filter="url(#filter0_f)">
<path fill-rule="evenodd" clip-rule="evenodd" d="M31.1746 83.1411C29.9215 83.1411 28.6965 82.7695 27.6546 82.0734C26.6127 81.3772 25.8007 80.3877 25.3211 79.23C24.8416 78.0723 24.7161 76.7984 24.9606 75.5694C25.2051 74.3404 25.8085 73.2115 26.6946 72.3254C27.5806 71.4393 28.7095 70.8359 29.9385 70.5915C31.1675 70.347 32.4414 70.4725 33.5991 70.952C34.7568 71.4315 35.7463 72.2436 36.4425 73.2855C37.1387 74.3274 37.5103 75.5523 37.5103 76.8054C37.5103 78.4858 36.8428 80.0973 35.6546 81.2854C34.4664 82.4736 32.8549 83.1411 31.1746 83.1411Z" fill="#F66689"/>
</g>
<g filter="url(#filter1_f)">
<path fill-rule="evenodd" clip-rule="evenodd" d="M96.3738 83.1411C95.1207 83.1411 93.8958 82.7695 92.8539 82.0734C91.812 81.3772 90.9999 80.3877 90.5204 79.23C90.0408 78.0723 89.9154 76.7984 90.1598 75.5694C90.4043 74.3404 91.0077 73.2115 91.8938 72.3254C92.7798 71.4393 93.9087 70.8359 95.1378 70.5915C96.3668 70.347 97.6407 70.4725 98.7984 70.952C99.9561 71.4315 100.946 72.2436 101.642 73.2855C102.338 74.3274 102.709 75.5523 102.709 76.8054C102.709 78.4858 102.042 80.0973 100.854 81.2854C99.6656 82.4736 98.0541 83.1411 96.3738 83.1411Z" fill="#F66689"/>
</g>
<path opacity="0.3" fill-rule="evenodd" clip-rule="evenodd" d="M113.439 97.9618C102.117 109.553 86.3148 116.749 68.832 116.749C34.3972 116.749 6.48235 88.8338 6.48235 54.3991C6.48235 41.0034 10.7068 28.5944 17.8962 18.4316C6.91845 29.6708 0.15332 45.0425 0.15332 61.9944C0.15332 96.4291 28.0682 124.344 62.5029 124.344C83.542 124.344 102.147 113.923 113.439 97.9618Z" fill="#BC8417"/>
<defs>
<filter id="filter0_f" x="20.6134" y="66.2442" width="21.1224" height="21.1224" filterUnits="userSpaceOnUse" color-interpolation-filters="sRGB">
<feFlood flood-opacity="0" result="BackgroundImageFix"/>
<feBlend mode="normal" in="SourceGraphic" in2="BackgroundImageFix" result="shape"/>
<feGaussianBlur stdDeviation="2.11274" result="effect1_foregroundBlur"/>
</filter>
<filter id="filter1_f" x="85.8126" y="66.2442" width="21.1224" height="21.1224" filterUnits="userSpaceOnUse" color-interpolation-filters="sRGB">
<feFlood flood-opacity="0" result="BackgroundImageFix"/>
<feBlend mode="normal" in="SourceGraphic" in2="BackgroundImageFix" result="shape"/>
<feGaussianBlur stdDeviation="2.11274" result="effect1_foregroundBlur"/>
</filter>
</defs>
</svg>

<svg xmlns="http://www.w3.org/2000/svg" width="125" height="126" fill="none" viewBox="0 0 125 126"><circle cx="62.503" cy="63.19" r="62.35" fill="#f9b42f"/><path fill="#2c2a46" fill-rule="evenodd" d="M85.806 59.532h-1.72zh-1.72za7 7 0 0 1 0-1.013c.068-.514.192-1.02.371-1.509.136-.386.313-.758.528-1.108.28-.487.684-.895 1.172-1.185a4.2 4.2 0 0 1 2.209-.515 5.2 5.2 0 0 1 1.485.19c.571.166 1.08.491 1.465.937.301.335.545.716.723 1.127.272.609.457 1.252.547 1.91q.042.526 0 1.051a2.52 2.52 0 0 0 .68 1.951c.245.262.543.47.875.613a2.67 2.67 0 0 0 2.108 0c.333-.142.63-.351.876-.613a2.55 2.55 0 0 0 .55-.906c.116-.335.16-.691.129-1.045a14 14 0 0 0-.156-1.91 13.6 13.6 0 0 0-.626-2.446 11 11 0 0 0-1.035-2.101 8.5 8.5 0 0 0-2.951-2.847 9.5 9.5 0 0 0-4.573-1.165 10.5 10.5 0 0 0-3.068.44 8.56 8.56 0 0 0-3.908 2.54 9.7 9.7 0 0 0-1.563 2.503 13 13 0 0 0-.958 3.324q-.135.875-.136 1.758a2.5 2.5 0 0 0 .151 1.04c.124.334.317.638.567.895.25.256.552.459.887.595a2.67 2.67 0 0 0 2.105-.038c.33-.149.623-.362.863-.628a2.5 2.5 0 0 0 .644-1.96m-52.55.143h-1.705zh-1.705za9 9 0 0 1 0-1.016q.129-.77.369-1.513.214-.577.523-1.11c.307-.509.74-.93 1.26-1.226a4.1 4.1 0 0 1 2.189-.518c.497-.007.993.058 1.472.192a3.03 3.03 0 0 1 1.454.938c.308.39.544.831.697 1.303.253.616.435 1.259.543 1.915 0 .575.097 1.015.097 1.054a2.54 2.54 0 0 0 .705 1.856 2.6 2.6 0 0 0 1.833.806 2.66 2.66 0 0 0 1.877-.776 2.58 2.58 0 0 0 .758-1.867 12.4 12.4 0 0 0-.174-1.916 12.2 12.2 0 0 0-.62-2.451 10 10 0 0 0-1.008-2.107 8.54 8.54 0 0 0-2.945-2.854 9.2 9.2 0 0 0-4.69-1.322 10.2 10.2 0 0 0-3.041.441 8.4 8.4 0 0 0-3.876 2.547 9.8 9.8 0 0 0-1.57 2.51 13 13 0 0 0-.93 3.332 12 12 0 0 0-.135 1.762 2.54 2.54 0 0 0 .774 1.829 2.6 2.6 0 0 0 1.861.738 2.64 2.64 0 0 0 1.828-.811 2.58 2.58 0 0 0 .71-1.851m42.789 12.491a14.6 14.6 0 0 1-2.761 4.831 12.5 12.5 0 0 1-3.805 3.026 13.91 13.91 0 0 1-12.158 0 11.4 11.4 0 0 1-3.009-2.265 15 15 0 0 1-2.601-3.734c-.248-.531-.425-.974-.549-1.274l-.018-.407-.884.247.884-.23-.884.248.884-.23a2.052 2.052 0 0 0-4.067.245c-.018.284.023.568.12.835a17.5 17.5 0 0 0 3.293 6.07 16.3 16.3 0 0 0 5.043 4.176 18.07 18.07 0 0 0 16.14 0 16.6 16.6 0 0 0 4.089-3.061 18.7 18.7 0 0 0 3.38-4.814q.583-1.168.99-2.407a2.061 2.061 0 1 0-3.963-1.133" clip-rule="evenodd"/><g filter="url(#a)"><path fill="#f66689" fill-rule="evenodd" d="M31.175 83.141a6.336 6.336 0 1 1 0-12.673 6.336 6.336 0 0 1 0 12.673" clip-rule="evenodd"/></g><g filter="url(#b)"><path fill="#f66689" fill-rule="evenodd" d="M96.374 83.141a6.336 6.336 0 1 1 0-12.672 6.336 6.336 0 0 1 0 12.672" clip-rule="evenodd"/></g><path fill="#bc8417" fill-rule="evenodd" d="M113.439 97.962c-11.322 11.591-27.124 18.787-44.607 18.787-34.435 0-62.35-27.915-62.35-62.35 0-13.396 4.225-25.805 11.414-35.967C6.918 29.67.153 45.042.153 61.994c0 34.435 27.915 62.35 62.35 62.35 21.039 0 39.644-10.421 50.936-26.382" clip-rule="evenodd" opacity=".3"/><defs><filter id="a" width="21.122" height="21.122" x="20.613" y="66.244" color-interpolation-filters="sRGB" filterUnits="userSpaceOnUse"><feFlood flood-opacity="0" result="BackgroundImageFix"/><feBlend in="SourceGraphic" in2="BackgroundImageFix" result="shape"/><feGaussianBlur result="effect1_foregroundBlur" stdDeviation="2.113"/></filter><filter id="b" width="21.122" height="21.122" x="85.813" y="66.244" color-interpolation-filters="sRGB" filterUnits="userSpaceOnUse"><feFlood flood-opacity="0" result="BackgroundImageFix"/><feBlend in="SourceGraphic" in2="BackgroundImageFix" result="shape"/><feGaussianBlur result="effect1_foregroundBlur" stdDeviation="2.113"/></filter></defs></svg>
